svg/previous.svg

<svg width="24" height="24" viewBox="0 0 24 24" fill="none" xmlns="http://www.w3.org/2000/svg">
<path d="M19 7.76621C19 6.21162 17.3041 5.2514 15.971 6.05123L8.91466 10.285C7.61998 11.0618 7.61998 12.9382 8.91466 13.715L15.971 17.9488C17.3041 18.7486 19 17.7884 19 16.2338V7.76621ZM9.94365 12L17 7.76621V16.2338L9.94365 12Z" fill="#0D0D0D"/>
<path d="M6 6.00002C6.55228 6.00002 7 6.44774 7 7.00002V17C7 17.5523 6.55228 18 6 18C5.44772 18 5 17.5523 5 17V7.00002C5 6.44774 5.44772 6.00002 6 6.00002Z" fill="#0D0D0D"/>
</svg>

<svg width="24" height="24" fill="none" xmlns="http://www.w3.org/2000/svg"><path d="M19 7.766c0-1.554-1.696-2.515-3.029-1.715l-7.056 4.234c-1.295.777-1.295 2.653 0 3.43l7.056 4.234c1.333.8 3.029-.16 3.029-1.715V7.766zM9.944 12L17 7.766v8.468L9.944 12zM6 6a1 1 0 011 1v10a1 1 0 11-2 0V7a1 1 0 011-1z" fill="#0D0D0D"/></svg>
